assets/svg/icon_2fa_authsetup.svg

<svg width="36" height="36" viewBox="0 0 36 36" fill="none" xmlns="http://www.w3.org/2000/svg">
<path d="M17.65 18C17.65 16.2603 19.0603 14.85 20.8 14.85C22.5397 14.85 23.95 16.2603 23.95 18C23.95 19.7397 22.5397 21.15 20.8 21.15C19.0603 21.15 17.65 19.7397 17.65 18Z" fill="white"/>
<path fill-rule="evenodd" clip-rule="evenodd" d="M6.05025 6.05025C4 8.1005 4 11.4003 4 18C4 24.5997 4 27.8995 6.05025 29.9497C8.1005 32 11.4003 32 18 32C24.5997 32 27.8995 32 29.9497 29.9497C32 27.8995 32 24.5997 32 18C32 11.4003 32 8.1005 29.9497 6.05025C27.8995 4 24.5997 4 18 4C11.4003 4 8.1005 4 6.05025 6.05025ZM10.65 11C10.65 10.4201 10.1799 9.95 9.6 9.95C9.0201 9.95 8.55 10.4201 8.55 11L8.55 25C8.55 25.5799 9.0201 26.05 9.6 26.05C10.1799 26.05 10.65 25.5799 10.65 25L10.65 11ZM15.9425 11.6575C15.5324 11.2475 14.8676 11.2475 14.4575 11.6575C14.0475 12.0676 14.0475 12.7324 14.4575 13.1425L16.4198 15.1047C15.8701 15.9347 15.55 16.93 15.55 18C15.55 19.07 15.8701 20.0653 16.4198 20.8953L14.4575 22.8575C14.0475 23.2676 14.0475 23.9324 14.4575 24.3425C14.8676 24.7525 15.5324 24.7525 15.9425 24.3425L17.9047 22.3802C18.7347 22.9299 19.73 23.25 20.8 23.25C21.87 23.25 22.8653 22.9299 23.6953 22.3802L25.6575 24.3425C26.0676 24.7525 26.7324 24.7525 27.1425 24.3425C27.5525 23.9324 27.5525 23.2676 27.1425 22.8575L25.1802 20.8953C25.7299 20.0653 26.05 19.07 26.05 18C26.05 16.93 25.7299 15.9347 25.1802 15.1047L27.1425 13.1425C27.5525 12.7324 27.5525 12.0676 27.1425 11.6575C26.7324 11.2475 26.0676 11.2475 25.6575 11.6575L23.6953 13.6198C22.8653 13.0701 21.87 12.75 20.8 12.75C19.73 12.75 18.7347 13.0701 17.9047 13.6198L15.9425 11.6575Z" fill="white"/>
</svg>

<svg xmlns="http://www.w3.org/2000/svg" width="36" height="36" fill="none"><path fill="#fff" d="M17.65 18a3.15 3.15 0 1 1 6.3 0 3.15 3.15 0 0 1-6.3 0"/><path fill="#fff" fill-rule="evenodd" d="M6.05 6.05C4 8.1 4 11.4 4 18s0 9.9 2.05 11.95S11.4 32 18 32s9.9 0 11.95-2.05S32 24.6 32 18s0-9.9-2.05-11.95S24.6 4 18 4 8.1 4 6.05 6.05m4.6 4.95a1.05 1.05 0 1 0-2.1 0v14a1.05 1.05 0 1 0 2.1 0zm5.293.658a1.05 1.05 0 0 0-1.485 1.485l1.962 1.962c-.55.83-.87 1.825-.87 2.895s.32 2.065.87 2.895l-1.963 1.963a1.05 1.05 0 0 0 1.486 1.485l1.962-1.963c.83.55 1.825.87 2.895.87s2.065-.32 2.895-.87l1.962 1.963a1.05 1.05 0 0 0 1.485-1.485l-1.962-1.963c.55-.83.87-1.825.87-2.895s-.32-2.065-.87-2.895l1.962-1.963a1.05 1.05 0 0 0-1.485-1.484l-1.962 1.962a5.23 5.23 0 0 0-2.895-.87c-1.07 0-2.065.32-2.895.87z" clip-rule="evenodd"/></svg>
